assets/symbols/mulberry/flag_congo_kinshasa.svg

<svg height="850.394" viewBox="0 0 850.394 850.394" width="850.394" xmlns="http://www.w3.org/2000/svg"><path d="m748.18 232.98v287.19h-530.18v-2.17z" fill="#a8d7f4"/><path d="m162.61 425.67v359.71h-39.49l-1.12-670.61c5.8 2.59 12.62 4.08 19.92 4.08 7.62 0 14.73-1.63 20.69-4.43z" fill="#c8c8c8"/><path d="m691.66 140.34-523.99 282.6-2.6-282.6zm-392.12 100.81 23.54-22.94-32.53-4.73-14.55-29.48-14.55 29.48-32.53 4.73 23.54 22.94-5.56 32.4 29.1-15.3 29.1 15.3z" fill="#a8d7f4"/><path d="m748.18 202.97v30.01l-530.18 285.02v2.17h-49.44l-.09-9.48z" fill="#fbed24"/><path d="m744 144v-3.66h4.18v62.63l-579.71 307.72-.52-56.96z" fill="#ed1e29"/><path d="m744 140.34v3.66l-576.05 309.73-.28-30.79 523.99-282.6zm-420.92 77.87-23.54 22.94 5.56 32.4-29.1-15.3-29.1 15.3 5.56-32.4-23.54-22.94 32.53-4.73 14.55-29.48 14.55 29.48z" fill="#fbed24"/><path d="m122 114.77c-10.99-4.89-18.33-13.72-18.33-23.8 0-15.4 17.13-27.88 38.25-27.88 21.13 0 38.26 12.48 38.26 27.88 0 9.84-7 18.49-17.57 23.45-5.96 2.8-13.07 4.43-20.69 4.43-7.3 0-14.12-1.49-19.92-4.08z" fill="#c8c8c8"/><g fill="none"><g stroke="#231f20"><path d="m165.07 140.34h583.11v379.83h-579.62m-46.56-405.4c-10.99-4.89-18.33-13.72-18.33-23.8 0-15.4 17.13-27.88 38.25-27.88 21.13 0 38.26 12.48 38.26 27.88 0 9.84-7 18.49-17.57 23.45-5.96 2.8-13.07 4.43-20.69 4.43-7.3 0-14.12-1.49-19.92-4.08z" stroke-width="21"/><path d="m122 114v.77l1.12 670.61m39.49-672.78v672.78" stroke-width="21"/><path d="m744.76 179.39 3.42-1.93 2.01-1.14m-6.19-32.32-576.05 309.73-5.34 2.87-2.61 1.4m6 54 2.47-1.31 579.71-307.72 1.82-.97m-532 316 530.18-285.02 1.82-.98m-588 194 .61-.33 5.06-2.73 523.99-282.6 4.34-2.34" stroke-width="14"/><path d="m276 258.25-29.1 15.3 5.56-32.4-23.54-22.94 32.53-4.73 14.55-29.48 14.55 29.48 32.53 4.73-23.54 22.94 5.56 32.4z" stroke-width="7"/></g><path d="m0 0h850.394v850.394h-850.394z"/></g></svg>

<svg xmlns="http://www.w3.org/2000/svg" width="850.394" height="850.394" viewBox="0 0 850.394 850.394" overflow="visible"><path fill="#a8d7f4" d="M748.18 232.98v287.19H218V518z"/><path d="M162.61 425.67v359.71h-39.49L122 114.77c5.8 2.59 12.62 4.08 19.92 4.08 7.62 0 14.73-1.63 20.69-4.43v311.25z" fill="#c8c8c8"/><path d="M691.66 140.34l-523.99 282.6-2.6-282.6h526.59zM299.54 241.15l23.54-22.94-32.53-4.73L276 184l-14.55 29.48-32.53 4.73 23.54 22.94-5.56 32.4 29.1-15.3 29.1 15.3-5.56-32.4z" fill="#a8d7f4"/><path fill="#fbed24" d="M748.18 202.97v30.01L218 518v2.17h-49.44l-.09-9.48z"/><path fill="#ed1e29" d="M744 144v-3.66h4.18V202.97L168.47 510.69l-.52-56.96z"/><path fill="#fbed24" d="M744 140.34V144L167.95 453.73l-.28-30.79 523.99-282.6zM323.08 218.21l-23.54 22.94 5.56 32.4-29.1-15.3-29.1 15.3 5.56-32.4-23.54-22.94 32.53-4.73L276 184l14.55 29.48z"/><path d="M122 114.77c-10.99-4.89-18.33-13.72-18.33-23.8 0-15.4 17.13-27.88 38.25-27.88 21.13 0 38.26 12.48 38.26 27.88 0 9.84-7 18.49-17.57 23.45-5.96 2.8-13.07 4.43-20.69 4.43-7.3 0-14.12-1.49-19.92-4.08z" fill="#c8c8c8"/><g fill="none" stroke="#231f20"><path stroke-width="21" d="M165.07 140.34h583.11v379.83H168.56M122 114.77c-10.99-4.89-18.33-13.72-18.33-23.8 0-15.4 17.13-27.88 38.25-27.88 21.13 0 38.26 12.48 38.26 27.88 0 9.84-7 18.49-17.57 23.45-5.96 2.8-13.07 4.43-20.69 4.43-7.3 0-14.12-1.49-19.92-4.08z"/><path stroke-width="21" d="M122 114v.77l1.12 670.61M162.61 112.6v672.78"/><path stroke-width="14" d="M744.76 179.39l3.42-1.93 2.01-1.14M744 144L167.95 453.73l-5.34 2.87L160 458M166 512l2.47-1.31 579.71-307.72L750 202M218 518l530.18-285.02L750 232M162 426l.61-.33 5.06-2.73 523.99-282.6L696 138"/><path stroke-width="7" d="M276 258.25l-29.1 15.3 5.56-32.4-23.54-22.94 32.53-4.73L276 184l14.55 29.48 32.53 4.73-23.54 22.94 5.56 32.4z"/></g><path fill="none" d="M0 0h850.394v850.394H0z"/></svg>
